assets/icons/24px/stroke/hug-content-horizontal-24px.svg

<svg width="24" height="24" viewBox="0 0 24 24" fill="none" xmlns="http://www.w3.org/2000/svg">
<path fill-rule="evenodd" clip-rule="evenodd" d="M4.3019 6.284C4.69734 5.89845 5.33045 5.90646 5.716 6.3019L7.86841 8.5095C7.88354 8.52502 7.89862 8.54048 7.91365 8.55589C8.51807 9.17575 9.03966 9.71065 9.40123 10.1958C9.78909 10.7163 10.0817 11.2928 10.0817 12C10.0817 12.7072 9.78909 13.2837 9.40123 13.8042C9.03966 14.2894 8.51807 14.8243 7.91364 15.4441L5.716 17.6981C5.33045 18.0935 4.69734 18.1016 4.3019 17.716C3.90646 17.3305 3.89845 16.6973 4.284 16.3019L6.43641 14.0943C7.09898 13.4147 7.52499 12.9748 7.79753 12.6091C8.05277 12.2666 8.08171 12.1064 8.08171 12C8.08171 11.8936 8.05277 11.7334 7.79753 11.3909C7.52499 11.0252 7.09898 10.5853 6.43641 9.9057L4.284 7.6981C3.89845 7.30266 3.90646 6.66955 4.3019 6.284ZM19.6981 6.284C20.0935 6.66955 20.1016 7.30266 19.716 7.6981L17.5636 9.9057C16.901 10.5853 16.475 11.0252 16.2025 11.3909C15.9472 11.7334 15.9183 11.8936 15.9183 12C15.9183 12.1064 15.9472 12.2666 16.2025 12.6091C16.475 12.9748 16.901 13.4147 17.5636 14.0943L19.716 16.3019C20.1016 16.6973 20.0935 17.3305 19.6981 17.716C19.3027 18.1016 18.6696 18.0935 18.284 17.6981L16.0863 15.4441C15.4819 14.8243 14.9603 14.2894 14.5988 13.8042C14.2109 13.2837 13.9183 12.7072 13.9183 12C13.9183 11.2928 14.2109 10.7163 14.5988 10.1958C14.9603 9.71065 15.4819 9.17575 16.0863 8.5559L18.284 6.3019C18.6696 5.90646 19.3027 5.89845 19.6981 6.284Z" fill="white"/>
</svg>

<svg width="24" height="24" fill="none" xmlns="http://www.w3.org/2000/svg"><path fill-rule="evenodd" clip-rule="evenodd" d="M4.302 6.284a1 1 0 0 1 1.414.018l2.152 2.207.046.047c.604.62 1.126 1.155 1.487 1.64.388.52.68 1.097.68 1.804 0 .707-.292 1.284-.68 1.804-.361.485-.883 1.02-1.487 1.64l-2.198 2.254a1 1 0 1 1-1.432-1.396l2.152-2.208c.663-.68 1.089-1.12 1.362-1.485.255-.342.284-.503.284-.609 0-.106-.03-.267-.284-.61-.273-.365-.699-.805-1.362-1.484L4.284 7.698a1 1 0 0 1 .018-1.414zm15.396 0a1 1 0 0 1 .018 1.414l-2.152 2.208c-.663.68-1.089 1.12-1.361 1.485-.256.342-.285.503-.285.609 0 .106.03.267.285.61.272.365.698.805 1.36 1.484l2.153 2.208a1 1 0 1 1-1.432 1.396l-2.198-2.254c-.604-.62-1.126-1.155-1.487-1.64-.388-.52-.68-1.097-.68-1.804 0-.707.292-1.284.68-1.804.361-.485.883-1.02 1.487-1.64l2.198-2.254a1 1 0 0 1 1.414-.018z" fill="#fff"/></svg>
